X: 59
T:Paddy Fahy's Jig
M:6/8
L:1/8
F:http://blackrosetheband.googlepages.com/ABCTUNES.ABC May 2009
K:Gm
"Gm"DGA BAB|cBc d2g|gfd Bcd|"F"cAG FDC|
"Gm"DGA BAB|cBc d2g|gfd Bcd|1 "F"cAF "Gm"G3:|2 "Dm"cAF "G"GBd||
"Gm"g3 "F"fga|"Gm"gfd Bcd|"F"BcA f3|"(Dm)"agf def|
"Gm"g2a bag|"F"fdg fdc|"Dm"B2G Adc|1 AGF "Gm"GBd:|2 AGF "Gm"G3||
%  ABC2Win Version 2.1 7/8/2002

